X:2948
T:H\or hvor vestavinden suser
C:L. Aug. Lundh
O:Sweden
R:March
Z:Transcribed by Frank Nordberg - http://www.musicaviva.com
F:http://abc.musicaviva.com/tunes/lundh-l-aug/hoer-hvor-vestavinden.abc
M:C
L:1/8
K:D
F>G|"D"A2d2"A7"c2e2|"D"d4A2SF>A|"A/C#"(G2G2)"D"F2D2|"A"E4 z2F>G|
"D"A2d2"A7"c2e2|"D"d4A2SB>B|"A/E"c2A2"E7"E2^G2|"A"A4z2A>A|
"A7"G2A2G2A>A|"D"F2A2F2A>A|"A7"AB cd e2c2|"D"d2B2A2SA>A|
"A"G2A2G2A>A|"D"F2A2Hd3Sd|"D/A"F2F>A"A7"E2E>F|"D"D4 z2|]
W:
W:
W:  From Musica Viva - http://www.musicaviva.com
W:  the Internet center for free sheet music downloads.
